src/images/dist/icons/stage-icon-3.svg

<svg width="33" height="33" viewBox="0 0 33 33" fill="none" xmlns="http://www.w3.org/2000/svg">
<path d="M16.4885 8.63886L16.2073 8.22544L15.9885 8.37426V8.63886H16.4885ZM26.0918 27.2159C26.2868 27.4114 26.6034 27.4118 26.7989 27.2168C26.9944 27.0218 26.9948 26.7052 26.7997 26.5097L26.0918 27.2159ZM30.0334 26.4916C29.8283 26.6765 29.8121 26.9927 29.9971 27.1977C30.182 27.4028 30.4982 27.419 30.7032 27.234L30.0334 26.4916ZM27.1247 1.37953L26.8727 0.947655L26.8572 0.956704L26.8424 0.966843L27.1247 1.37953ZM31.5468 25.7995L31.8818 26.1708L31.5468 25.7995ZM31.4693 22.4041L31.7654 22.0012L31.4693 22.4041ZM25.4956 22.4041L25.1995 22.0012L25.4956 22.4041ZM13.1572 11.1007L13.589 10.8485L13.1572 11.1007ZM25.3799 25.7944L25.7339 25.4412L25.3799 25.7944ZM1.44922 22.8381V17.8056H0.449219V22.8381H1.44922ZM1.94922 17.3056H8.64344V16.3056H1.94922V17.3056ZM9.14344 16.8056V11.6049H8.14344V16.8056H9.14344ZM9.64344 11.1049H12.2936V10.1049H9.64344V11.1049ZM12.7254 11.3528L16.0568 17.0577L16.9203 16.5535L13.589 10.8485L12.7254 11.3528ZM16.1345 17.1587L20.3588 21.3933L21.0668 20.6871L16.8425 16.4525L16.1345 17.1587ZM20.2128 21.0402V22.8381H21.2128V21.0402H20.2128ZM8.64344 23.3381H1.94922V24.3381H8.64344V23.3381ZM8.14344 16.8056V23.8381H9.14344V16.8056H8.14344ZM8.64344 17.3056H16.4885V16.3056H8.64344V17.3056ZM16.9885 16.8056V8.63886H15.9885V16.8056H16.9885ZM16.7697 9.05228L20.994 6.17879L20.4316 5.35196L16.2073 8.22544L16.7697 9.05228ZM27.9825 4.70672V20.2084H28.9825V4.70672H27.9825ZM28.1863 19.8056L25.1995 22.0012L25.7918 22.807L28.7786 20.6113L28.1863 19.8056ZM24.5879 23.2098V25.0882H25.5879V23.2098H24.5879ZM25.0259 26.1475C25.3151 26.4373 25.7612 26.8845 26.0918 27.2159L26.7997 26.5097C26.4692 26.1783 26.023 25.7311 25.7339 25.4412L25.0259 26.1475ZM28.1863 20.6113L31.1731 22.807L31.7654 22.0012L28.7786 19.8056L28.1863 20.6113ZM31.377 23.2098V25.057H32.377V23.2098H31.377ZM31.2119 25.4283L30.0334 26.4916L30.7032 27.234L31.8818 26.1708L31.2119 25.4283ZM19.7128 23.3381H10.6801V24.3381H19.7128V23.3381ZM10.6801 23.3381H8.64344V24.3381H10.6801V23.3381ZM10.1801 23.8381V26.6843H11.1801V23.8381H10.1801ZM10.6801 26.1843H3.76069V27.1843H10.6801V26.1843ZM3.76069 32.8073H17.9013V31.8073H3.76069V32.8073ZM17.9013 26.1843H10.6801V27.1843H17.9013V26.1843ZM20.2128 10.2268V21.0402H21.2128V10.2268H20.2128ZM20.9951 6.17806L27.4069 1.79222L26.8424 0.966843L20.4305 5.35268L20.9951 6.17806ZM20.2128 5.76537V9.69751H21.2128V5.76537H20.2128ZM20.2128 9.69751V10.2268H21.2128V9.69751H20.2128ZM28.2122 4.28604L20.4426 9.27682L20.983 10.1182L28.7527 5.12741L28.2122 4.28604ZM27.3766 1.81141C28.4019 1.21325 29.1238 1.57641 29.3618 2.02857C29.6002 2.48126 29.549 3.4083 28.208 4.28876L28.7569 5.12468C30.3418 4.08405 30.8164 2.64471 30.2467 1.56268C29.6767 0.480131 28.2567 0.140235 26.8727 0.947655L27.3766 1.81141ZM26.8424 0.966843C26.0579 1.50344 25.5823 2.11403 25.3956 2.74752C25.2068 3.3884 25.3305 4.00034 25.6469 4.4804C26.2617 5.41327 27.6198 5.85509 28.7527 5.12741L28.2122 4.28604C27.585 4.68896 26.8254 4.45139 26.4819 3.93013C26.3191 3.68312 26.2535 3.3743 26.3549 3.03013C26.4584 2.67858 26.7526 2.23984 27.4069 1.79222L26.8424 0.966843ZM3.76069 26.1843C1.93181 26.1843 0.449219 27.6669 0.449219 29.4958H1.44922C1.44922 28.2192 2.4841 27.1843 3.76069 27.1843V26.1843ZM31.377 25.057C31.377 25.1986 31.317 25.3335 31.2119 25.4283L31.8818 26.1708C32.197 25.8863 32.377 25.4816 32.377 25.057H31.377ZM31.1731 22.807C31.3013 22.9012 31.377 23.0507 31.377 23.2098H32.377C32.377 22.7326 32.1499 22.2839 31.7654 22.0012L31.1731 22.807ZM25.1995 22.0012C24.815 22.2839 24.5879 22.7326 24.5879 23.2098H25.5879C25.5879 23.0507 25.6636 22.9012 25.7918 22.807L25.1995 22.0012ZM20.2128 22.8381C20.2128 23.1142 19.9889 23.3381 19.7128 23.3381V24.3381C20.5412 24.3381 21.2128 23.6665 21.2128 22.8381H20.2128ZM12.2936 11.1049C12.4714 11.1049 12.6358 11.1993 12.7254 11.3528L13.589 10.8485C13.3201 10.388 12.8269 10.1049 12.2936 10.1049V11.1049ZM24.5879 25.0882C24.5879 25.4853 24.7454 25.8663 25.0259 26.1475L25.7339 25.4412C25.6404 25.3475 25.5879 25.2206 25.5879 25.0882H24.5879ZM9.14344 11.6049C9.14344 11.3288 9.3673 11.1049 9.64344 11.1049V10.1049C8.81501 10.1049 8.14344 10.7765 8.14344 11.6049H9.14344ZM21.2128 29.4958C21.2128 27.6669 19.7302 26.1843 17.9013 26.1843V27.1843C19.1779 27.1843 20.2128 28.2192 20.2128 29.4958H21.2128ZM1.44922 17.8056C1.44922 17.5295 1.67308 17.3056 1.94922 17.3056V16.3056C1.12079 16.3056 0.449219 16.9772 0.449219 17.8056H1.44922ZM0.449219 29.4958C0.449219 31.3247 1.93181 32.8073 3.76069 32.8073V31.8073C2.4841 31.8073 1.44922 30.7724 1.44922 29.4958H0.449219ZM17.9013 32.8073C19.7302 32.8073 21.2128 31.3247 21.2128 29.4958H20.2128C20.2128 30.7724 19.1779 31.8073 17.9013 31.8073V32.8073ZM0.449219 22.8381C0.449219 23.6665 1.12079 24.3381 1.94922 24.3381V23.3381C1.67308 23.3381 1.44922 23.1142 1.44922 22.8381H0.449219Z" fill="#211E1E"/>
<path d="M17.8194 32.3073C16.2666 32.3073 15.0078 30.9704 15.0078 29.4176C15.0078 27.8648 16.2666 26.6841 17.8194 26.6841" stroke="#211E1E"/>
<path d="M3.7626 26.6844C5.31542 26.6844 6.57422 28.0213 6.57422 29.5741C6.57422 31.1269 5.31542 32.3076 3.7626 32.3076" stroke="#211E1E"/>
</svg>

<svg width="33" height="33" fill="none" xmlns="http://www.w3.org/2000/svg"><path d="M16.488 8.639l-.28-.414-.22.15v.264h.5zm9.604 18.577a.5.5 0 10.708-.706l-.708.706zm3.941-.724a.5.5 0 10.67.742l-.67-.742zM27.125 1.38l-.252-.432-.016.009-.015.01.283.413zm4.422 24.42l.335.37-.335-.37zm-.078-3.396l.296-.403-.296.403zm-5.973 0l-.296-.403.296.403zM13.157 11.101l.432-.253-.432.253zM25.38 25.794l.354-.353-.354.353zM1.45 22.838v-5.032h-1v5.032h1zm.5-5.532h6.693v-1H1.95v1zm7.193-.5v-5.201h-1v5.2h1zm.5-5.701h2.65v-1h-2.65v1zm3.082.248l3.332 5.705.863-.505-3.331-5.705-.864.505zm3.41 5.806l4.224 4.234.708-.706-4.224-4.235-.709.707zm4.078 3.881v1.798h1V21.04h-1zm-11.57 2.298H1.95v1h6.694v-1zm-.5-6.532v7.032h1v-7.032h-1zm.5.5h7.845v-1H8.643v1zm8.345-.5V8.639h-1v8.167h1zm-.218-7.754l4.224-2.873-.562-.827-4.225 2.873.563.827zm11.213-4.345v15.501h1V4.707h-1zm.203 15.099L25.2 22l.592.806 2.987-2.196-.593-.805zm-3.598 3.404v1.878h1V23.21h-1zm.438 2.938l1.066 1.068.708-.706-1.066-1.069-.708.707zm3.16-5.537l2.987 2.196.592-.806-2.986-2.195-.593.805zm3.191 2.599v1.847h1V23.21h-1zm-.165 2.218l-1.179 1.064.67.742 1.179-1.063-.67-.743zm-11.5-2.09H10.68v1h9.033v-1zm-9.032 0H8.643v1h2.037v-1zm-.5.5v2.846h1v-2.846h-1zm.5 2.346H3.76v1h6.92v-1zm-6.92 6.623h14.141v-1H3.761v1zm14.141-6.623h-7.22v1h7.22v-1zm2.312-15.957V21.04h1V10.227h-1zm.782-4.049l6.412-4.386-.565-.825-6.412 4.386.565.825zm-.782-.413v3.933h1V5.765h-1zm0 3.933v.529h1v-.53h-1zm8-5.412l-7.77 4.99.54.842 7.77-4.99-.54-.842zm-.836-2.475c1.025-.598 1.747-.235 1.985.218.238.452.187 1.38-1.154 2.26l.549.836c1.585-1.04 2.06-2.48 1.49-3.562C29.677.48 28.257.14 26.873.948l.504.863zm-.535-.844c-.784.536-1.26 1.147-1.446 1.78a2.05 2.05 0 00.25 1.733c.616.933 1.974 1.375 3.107.647l-.54-.841a1.26 1.26 0 01-1.731-.356 1.05 1.05 0 01-.127-.9c.103-.351.398-.79 1.052-1.238l-.565-.825zM3.761 26.184a3.311 3.311 0 00-3.312 3.312h1a2.311 2.311 0 012.312-2.312v-1zm27.616-1.127a.5.5 0 01-.165.371l.67.743a1.5 1.5 0 00.495-1.114h-1zm-.204-2.25a.5.5 0 01.204.403h1a1.5 1.5 0 00-.612-1.21l-.592.806zm-5.973-.806a1.5 1.5 0 00-.612 1.209h1a.5.5 0 01.204-.403l-.593-.806zm-4.987.837a.5.5 0 01-.5.5v1a1.5 1.5 0 001.5-1.5h-1zm-7.92-11.733a.5.5 0 01.432.248l.864-.505a1.5 1.5 0 00-1.295-.743v1zm12.295 13.983c0 .397.157.778.438 1.06l.708-.707a.5.5 0 01-.146-.353h-1zM9.143 11.605a.5.5 0 01.5-.5v-1a1.5 1.5 0 00-1.5 1.5h1zm12.07 17.89a3.311 3.311 0 00-3.312-3.31v1a2.312 2.312 0 012.312 2.31h1zM1.449 17.806a.5.5 0 01.5-.5v-1a1.5 1.5 0 00-1.5 1.5h1zm-1 11.69a3.311 3.311 0 003.312 3.312v-1a2.311 2.311 0 01-2.312-2.311h-1zm17.452 3.312a3.311 3.311 0 003.312-3.311h-1a2.312 2.312 0 01-2.312 2.311v1zM.45 22.838a1.5 1.5 0 001.5 1.5v-1a.5.5 0 01-.5-.5h-1z" fill="#211E1E"/><path d="M17.82 32.307c-1.553 0-2.812-1.337-2.812-2.89 0-1.552 1.259-2.733 2.811-2.733m-14.056 0c1.552 0 2.811 1.337 2.811 2.89 0 1.553-1.259 2.734-2.811 2.734" stroke="#211E1E"/></svg>
